X: 31625
T: Papa Stoor Bridal March
R: slip jig
M: 9/8
K: Dmajor
ddd fga gfe|ddd fga gfe|ddd fga gfe|ddd fga gfe|
ecA ecA f2e|ecA ecA f2e|ecA ecA f2e|ecA ecA f2e|
dBA FED E2A|dBA FED E2A|dBA FED E2A|dBA GFE D2z||

